X:95
T: Die Todesbraut
N: Q1049G
O: Suedosteuropa, Jugoslawien, Gottschee
N: Melodievergleich zu Q0049B, anderes Lied.
R: Brauchtums - Lied, religioes
M: 3/4
L: 1/4
K: A
A | BAG | AAB | BAB | A2
B | =cBA | GAB | A2G | A2
A | BAG | AAB | BAB | A2
B | =cBA | GAB | A2G | A2

